!!!!SEGMENT: pl-wnifc--6666-n--001_namyslowski-karol--oberek-zawierucha.krn
!!!cenid: 18xx:3984
!!!COM: Namysłowski, Karol
!!!COM-rismID: pe30020486
!!!CDT: 1856-1925
!!!CNT: Polish
!!!OTL: Oberek Zawierucha
!!!PDT:
!!!AGN:
!!!YEC: Copyright 2022 Narodowy Instytut Fryderyka Chopina (https://polishscores.org)
!!!YEM: License CC-BY-4.0 (https://creativecommons.org/licenses/by/4.0)
!!!SMS-siglum: PL-Wnifc
!!!SMS-shelfmark: 6666/n
!!!SMS-shelfwork: 001 W
!!!SMS-variant:
!!!SMS-altvar:
!!!NIFC-rismSourceID: 1001150235
!!!NIFC-rismChildID: 1001150240
!!!NIFC-islandoraID: nifc:213162
!!!URL-pdf-islandora: https://repozytorium.nifc.pl/islandora/object/nifc%3A213162/datastream/PDF/view
!!!URL-scan: https://polish.musicsources.pl/pl/lokalizacje/galeria/klocki-introligatorskie/687 @EN{Scan on Polish Music Sources Website} @PL{Skany w portalu Dziedzictwo Muzyki Polskiej w otwartym dostępie}
!!!IIIF:
!!!ONB-nifc: UWAGA: skan 3
!!!AIN: 2 piano
!!!key: D
**kern	**text	**kern	**text	**dynam
*part2	*	*part1	*	*
*staff2	*	*staff1	*	*
*I"PIANO.	*	*I"PIANO.	*	*
*I'Pf	*	*I'Pf	*	*
*Ipiano	*	*Ipiano	*	*
*ICkalv	*	*ICklav	*	*
*clefF4	*	*clefG2	*	*
*k[f#c#]	*	*k[f#c#]	*	*
*D:	*	*D:	*	*
*M3/8	*	*M3/8	*	*
=1	=1	=1	=1	=1
!	!	!LO:TX:a:B:t=OBEREK ZAWIERUCHA.	!	!
4D\ 4A	.	4d/ 4a	.	f
8D\ 8A	.	8d/ 8a	.	.
=2	=2	=2	=2	=2
4D\ 4A	.	4d/ 4a	.	.
8D\ 8A	.	8d/ 8a	.	.
=3	=3	=3	=3	=3
8D\L 8A	.	8d/L 8a	.	.
8D\ 8A	.	8d/ 8a	.	.
8D\J 8A	.	8d/J 8a	.	.
=4	=4	=4	=4	=4
8D\L 8A	.	8d/L 8a	.	.
8D\ 8A	.	8d/ 8a	.	.
8D\J 8A	.	8d/J 8a	.	.
=5||	=5||	=5||	=5||	=5||
*	*	*	*	*below
8DD/ 8D	.	16dd\LL	.	f
.	.	16ff#\	.	.
8F#\L 8A 8d	.	16aa\	.	.
.	.	16gg#X\	.	.
8F#\J 8A 8d	.	16aa\	.	.
.	.	16bb\JJ	.	.
=6	=6	=6	=6	=6
.	.	(8qbb/	.	.
8DD/ 8D	.	8aa\L)	.	.
8Fn\L 8B 8d	.	16gg#X\L	.	.
.	.	16bb\JJ	.	.
8F#X\J 8A 8d	.	8aa\	.	.
=7	=7	=7	=7	=7
!	!	!LO:TX:a:t=Karola Namysłowskiego.	!	!
8AA/	.	16ff#\LL	.	.
.	.	16ff#\JJ	.	.
.	.	(8qaa/	.	.
8G\L 8A 8c#	.	8ggn\L)	.	.
8G\J 8A 8c#	.	16ee\L	.	.
.	.	16cc#\JJ	.	.
!LO:LB:g=original	!	!LO:LB:g=original	!	!
=8	=8	=8	=8	=8
8AA\L 8E 8G	.	8a\L	.	.
8AA\ 8E 8G	.	16a\L	.	.
.	.	16cc#\JJ	.	.
8D\J 8F# 8A	.	8dd\	.	.
=9	=9	=9	=9	=9
8DD/ 8D	.	16dd\LL	.	.
.	.	16ff#\	.	.
8F#\L 8A 8d	.	16aa\	.	.
.	.	16gg#X\	.	.
8F#\J 8A 8d	.	16aa\	.	.
.	.	16bb\JJ	.	.
=10	=10	=10	=10	=10
.	.	(8qbb/	.	.
8DD/ 8D	.	8aa\L)	.	.
8Fn\L 8B 8d	.	16gg#X\L	.	.
.	.	16bb\JJ	.	.
8F#X\J 8A 8d	.	8aa\	.	.
=11	=11	=11	=11	=11
8AA/	.	16ff#\LL	.	.
.	.	16ff#\JJ	.	.
.	.	(8qaa/	.	.
8G\L 8A 8c#	.	8ggn\L)	.	.
8G\J 8A 8c#	.	16ee\L	.	.
.	.	16cc#\JJ	.	.
=12	=12	=12	=12	=12
8AA\L 8E 8G	.	8a\L	.	.
8AA\ 8E 8G	.	16a\L	.	.
.	.	16cc#\JJ	.	.
8D\J 8F# 8A	.	8dd\	.	.
=13||	=13||	=13||	=13||	=13||
8D\ 8F# 8A	.	16ff#\LL	.	.
.	.	16ff#\JJ	.	.
.	.	(8qaa/	.	.
4AA\ 4E 4G	.	8gg\L)	.	.
.	.	16ee\L	.	.
.	.	16cc#\JJ	.	.
!LO:LB:g=original	!	!LO:LB:g=original	!	!
=14	=14	=14	=14	=14
8AA\L	.	8.a\L	.	.
8E\ 8G 8A	.	.	.	.
.	.	16cc#\L	.	.
8E\J 8G 8A	.	16ee\	.	.
.	.	16gg\JJ	.	.
=15	=15	=15	=15	=15
8D\ 8F# 8A	.	16ff#\LL	.	.
.	.	16ff#\JJ	.	.
.	.	(8qaa/	.	.
4AA\ 4E 4G	.	8gg\L)	.	.
.	.	16ee\L	.	.
.	.	16cc#\JJ	.	.
=16	=16	=16	=16	=16
8AA\L 8E 8G	.	8a\L	.	.
8AA\ 8E 8G	.	16a\L	.	.
.	.	16cc#\J	.	.
8D\J 8F# 8A	.	8dd\J	.	.
=17	=17	=17	=17	=17
8D\ 8F# 8A	.	16ff#\LL	.	.
.	.	16ff#\JJ	.	.
.	.	(8qaa/	.	.
4AA^\ 4E 4G	.	8gg\L)	.	.
.	.	16ee\L	.	.
.	.	16cc#\JJ	.	.
=18	=18	=18	=18	=18
8AA\L	.	8.a\L	.	.
8E\ 8G 8A	.	.	.	.
.	.	16cc#\L	.	.
8E\J 8G 8A	.	16ee\	.	.
.	.	16gg\JJ	.	.
=19	=19	=19	=19	=19
8D\ 8F# 8A	.	16ff#\LL	.	.
.	.	16ff#\JJ	.	.
.	.	(8qaa/	.	.
4AA^\ 4E 4G	.	8gg\L)	.	.
.	.	16ee\L	.	.
.	.	16cc#\JJ	.	.
!LO:LB:g=original	!	!LO:LB:g=original	!	!
=20	=20	=20	=20	=20
8AA\L 8E 8G	.	8a\L	.	.
8AA\ 8E 8G	.	16a\L	.	.
.	.	16cc#\JJ	.	.
8D\J 8F# 8A	.	8dd\	.	.
=21!|:	=21!|:	=21!|:	=21!|:	=21!|:
*k[f#c#g#]	*	*k[f#c#g#]	*	*
*A:	*	*A:	*	*
(8qG#/	.	(8qgg#/	.	.
4A\)	.	4aa\)	.	.
8A\	.	8aa\	.	.
=22	=22	=22	=22	=22
(8qG#/	.	(8qgg#X/	.	.
4A\)	.	4aa\)	.	.
8A\	.	8aa\	.	.
=23	=23	=23	=23	=23
(8qG#/	.	(8qgg#/	.	.
8A\L)	.	8aa\L)	.	.
(8qG#/	.	(8qgg#/	.	.
8A\)	.	8aa\)	.	.
(8qG#/	.	(8qgg#/	.	.
8A\J)	.	8aa\J)	.	.
=24	=24	=24	=24	=24
(8qG#/	.	(8qgg#/	.	.
8A\L)	hop!	8aa\L)	hop!	.
(8qG#/	.	(8qgg#/	.	.
8A\)	hop!	8aa\)	hop!	.
(8qG#/	.	(8qgg#/	.	.
8A\J)	hop!	8aa\J)	hop!	.
=25	=25	=25	=25	=25
8A\L 8c# 8e	.	16cc#\LL	.	.
.	.	16dd\JJ	.	.
8A\ 8c# 8e	.	8ee\L	.	.
8A\J 8c# 8e	.	16ff#\L	.	.
.	.	16gg#\JJ	.	.
!LO:LB:g=original	!	!LO:LB:g=original	!	!
=26	=26	=26	=26	=26
8F#\L 8A 8B 8d#X	.	16aa\LL	.	.
.	.	16ff#\JJ	.	.
8A\ 8B 8d#	.	8aa\L	.	.
.	.	(8qbb/	.	.
8F#\J 8A 8B 8d#	.	16aa\L)	.	.
.	.	16ff#\JJ	.	.
=27	=27	=27	=27	=27
8F#\L 8A 8B 8d#X	.	16aa\LL	.	.
.	.	16ff#\JJ	.	.
8A\ 8B 8d#	.	8aa\L	.	.
.	.	(8qbb/	.	.
8F#\J 8A 8B 8d#	.	16aa\L)	.	.
.	.	16ff#\JJ	.	.
=28	=28	=28	=28	=28
8F#\L 8A 8B 8d#X	.	16aa\LL	.	.
.	.	16ff#\JJ	.	.
8A\ 8B 8d#	.	8aa\L	.	.
.	.	(8qbb/	.	.
8F#\J 8A 8B 8d#	.	16aa\L)	.	.
.	.	16ff#\JJ	.	.
=29	=29	=29	=29	=29
8A\L 8c# 8e	.	(24ee\LL	.	.
.	.	24ff#\	.	.
.	.	24gg#\JJ)	.	.
8A\ 8c# 8e	.	8aa\L	.	.
8A\J 8c# 8e	.	16ee\L	.	.
.	.	16cc#\JJ	.	.
=30	=30	=30	=30	=30
8E\L 8B 8d	.	16dd\LL	.	.
.	.	16b\JJ	.	.
8E\ 8B 8d	.	8dd\L	.	.
.	.	(8qee/	.	.
8E\J 8B 8d	.	16dd\L)	.	.
.	.	16b\JJ	.	.
!LO:LB:g=original	!	!LO:LB:g=original	!	!
=31	=31	=31	=31	=31
8E\L 8B 8d	.	16dd\LL	.	.
.	.	16b\JJ	.	.
8E\ 8B 8d	.	8dd\L	.	.
.	.	(8qee/	.	.
8E\J 8B 8d	.	16dd\L)	.	.
.	.	16b\JJ	.	.
=32	=32	=32	=32	=32
8E\L 8B 8d	.	16dd\LL	.	.
.	.	16b\JJ	.	.
8E\ 8B 8d	.	8dd\L	.	.
.	.	(8qee/	.	.
8E\J 8B 8d	.	16dd\L)	.	.
.	.	16b\JJ	.	.
=33	=33	=33	=33	=33
8A\L 8c# 8e	.	16cc#\LL	.	.
.	.	16dd\JJ	.	.
8A\ 8c# 8e	.	8ee\L	.	.
8A\J 8c# 8e	.	16ff#\L	.	.
.	.	16gg#\JJ	.	.
=34	=34	=34	=34	=34
8A\L 8B#X 8d#X	.	16aa\LL	.	.
.	.	16ff#\JJ	.	.
8A\ 8B# 8d#	.	8aa\L	.	.
.	.	(8qbb/	.	.
8A\J 8B# 8d#	.	16aa\L)	.	.
.	.	16ff#\JJ	.	.
=35	=35	=35	=35	=35
8A\L 8B#X 8d#X	.	16aa\LL	.	.
.	.	16ff#\JJ	.	.
8A\ 8B# 8d#	.	8aa\L	.	.
.	.	(8qbb/	.	.
8A\J 8B# 8d#	.	16aa\L)	.	.
.	.	16ff#\JJ	.	.
!LO:LB:g=original	!	!LO:LB:g=original	!	!
=36	=36	=36	=36	=36
8A\L 8B#X 8d#X	.	16aa\LL	.	.
.	.	16ff#\JJ	.	.
8A\ 8B# 8d#	.	8aa\L	.	.
.	.	(8qbb/	.	.
8A\J 8B# 8d#	.	16aa\L)	.	.
.	.	16ff#\JJ	.	.
=37	=37	=37	=37	=37
8A\L 8c# 8e	.	(24ee\LL	.	.
.	.	24ff#\	.	.
.	.	24gg#\JJ)	.	.
8A\ 8c# 8e	.	8aa\L	.	.
8A\J 8c# 8e	.	16ee\L	.	.
.	.	16cc#\JJ	.	.
=38	=38	=38	=38	=38
8E\L 8B 8d	.	(24b\LL	.	.
.	.	24cc#\	.	.
.	.	24dd\JJ)	.	.
8E\ 8B 8d	.	8e/L	.	.
8E\J 8B 8d	.	16g#/L	.	.
.	.	16b/JJ	.	.
=39	=39	=39	=39	=39
8A\L 8c# 8e	.	(24ee\LL	.	.
.	.	24ff#\	.	.
.	.	24gg#\JJ)	.	.
8A\ 8c# 8e	.	8aa\L	.	.
8A\J 8c# 8e	.	16ee\L	.	.
.	.	16cc#\JJ	.	.
=40	=40	=40	=40	=40
8E\L 8B 8d	.	(24b\LL	.	.
.	.	24cc#\	.	.
.	.	24dd\JJ)	.	.
8E\ 8B 8d	.	8e/L	.	.
8E\J 8B 8d	.	16g#/L	.	.
.	.	16b/JJ	.	.
=41	=41	=41	=41	=41
8A\L 8c# 8e	.	8a\L	.	.
.	.	(8qgg#/	.	.
8A\ 8c# 8e	.	8aa\)	.	.
.	.	(8qgg#/	.	.
8A\J 8c# 8e	.	8aa\J)	.	.
!LO:LB:g=original	!	!LO:LB:g=original	!	!
=42	=42	=42	=42	=42
.	.	(8qgg#/	.	.
8A\L 8c# 8e	.	8aa\L)	.	.
.	.	(8qgg#/	.	.
8A\ 8c# 8e	.	8aa\)	.	.
.	.	(8qgg#/	.	.
8A\J 8c# 8e	.	8aa\J)	.	.
=43	=43	=43	=43	=43
8AA\L	.	(24ee\LL	.	.
.	.	24ff#\	.	.
.	.	24ggn\JJ)	.	.
8G#\ 8A 8c#	.	8bb\L	.	.
8G#\J 8A 8c#	.	16bb\L	.	.
.	.	16gg\JJ	.	.
=44	=44	=44	=44	=44
8D\L	.	16.aa\LL	.	.
.	.	32ff#\JJk	.	.
8F#\ 8A 8d	.	8aa\L	.	.
8F#\J 8A 8d	.	16aa\L	.	.
.	.	16ff#\JJ	.	.
=45	=45	=45	=45	=45
8AA\L	.	(24ee\LL	.	.
.	.	24ff#\	.	.
.	.	24gg#X\JJ)	.	.
8A\ 8c# 8e	.	8aa\L	.	.
8A\J 8c# 8e	.	16cc#\L	.	.
.	.	16ee\JJ	.	.
=46	=46	=46	=46	=46
8E\L	.	16dd\LL	.	.
.	.	16b\JJ	.	.
8G#\ 8B 8d	.	8dd\L	.	.
8G#\J 8B 8d	.	16dd\L	.	.
.	.	16b\JJ	.	.
=47	=47	=47	=47	=47
8AA\L	.	8.a\L	.	.
8A\ 8c# 8e	.	.	.	.
.	.	16cc#\L	.	.
8A\J 8c# 8e	.	16ee\	.	.
.	.	16cc#\JJ	.	.
!LO:LB:g=original	!	!LO:LB:g=original	!	!
=48	=48	=48	=48	=48
8D\L	.	16dd\LL	.	.
.	.	16ff#\	.	.
8F#\ 8A 8d	.	16dd\	.	.
.	.	16ff#\	.	.
8F#\J 8A 8d	.	16aa\	.	.
.	.	16ff#\JJ	.	.
=49	=49	=49	=49	=49
8AA\L	.	(24ee\LL	.	.
.	.	24ff#\	.	.
.	.	24ee\JJ)	.	.
8A\ 8c# 8e	.	8cc#\L	.	.
8A\J 8c# 8e	.	16ee\L	.	.
.	.	16cc#\JJ	.	.
=50	=50	=50	=50	=50
8D\L	.	16dd\LL	.	.
.	.	16ff#\	.	.
8F#\ 8A 8d	.	16dd\	.	.
.	.	16ff#\	.	.
8F#\J 8A 8d	.	16aa\	.	.
.	.	16ff#\JJ	.	.
=51	=51	=51	=51	=51
8AA\L	.	(24ee\LL	.	.
.	.	24ff#\	.	.
.	.	24ee\JJ)	.	.
8A\ 8c# 8e	.	8cc#\L	.	.
8A\J 8c# 8e	.	16ee\L	.	.
.	.	16cc#\JJ	.	.
=52	=52	=52	=52	=52
8E\L	.	16dd\LL	.	.
.	.	16b\JJ	.	.
8E\ 8G# 8d	.	8dd\L	.	.
8E\J 8G# 8d	.	16dd\L	.	.
.	.	16b\JJ	.	.
=53	=53	=53	=53	=53
8AA\L	.	8a\L	.	.
8A\ 8c# 8e	.	16a\L	.	.
.	.	16cc#\	.	.
8A\J 8c# 8e	.	16ee\	.	.
.	.	16cc#\JJ	.	.
!LO:LB:g=original	!	!LO:LB:g=original	!	!
=54	=54	=54	=54	=54
8E\L	.	16dd\LL	.	.
.	.	16b\JJ	.	.
8E\ 8G# 8d	.	8dd\L	.	.
8E\J 8G# 8d	.	16dd\L	.	.
.	.	16b\JJ	.	.
=55	=55	=55	=55	=55
8AA\L	.	8a\L	.	.
8A\ 8c# 8e	.	16a\L	.	.
.	.	16cc#\	.	.
8A\J 8c# 8e	.	16ee\	.	.
.	.	16cc#\JJ	.	.
=56	=56	=56	=56	=56
8E\L	.	16dd\LL	.	.
.	.	16b\JJ	.	.
8E\ 8G# 8d	.	8dd\L	.	.
8E\J 8G# 8d	.	16dd\L	.	.
.	.	16b\JJ	.	.
=57	=57	=57	=57	=57
8AA\L	.	8a\L	.	.
8A\ 8c# 8e	.	16a\L	.	.
.	.	16cc#\	.	.
8A\J 8c# 8e	.	16ee\	.	.
.	.	16cc#\JJ	.	.
=58	=58	=58	=58	=58
8D\L	.	16dd\LL	.	.
.	.	16ff#\	.	.
8F#\ 8A 8d	.	16dd\	.	.
.	.	16ff#\	.	.
8F#\J 8A 8d	.	16aa\	.	.
.	.	16ff#\JJ	.	.
=59	=59	=59	=59	=59
8AA\L	.	(24ee\LL	.	.
.	.	24ff#\	.	.
.	.	24ee\JJ)	.	.
8A\ 8c# 8e	.	8cc#\L	.	.
8A\J 8c# 8e	.	16ee\L	.	.
.	.	16cc#\JJ	.	.
!LO:LB:g=original	!	!LO:LB:g=original	!	!
=60	=60	=60	=60	=60
8D\L	.	16dd\LL	.	.
.	.	16ff#\	.	.
8F#\ 8A 8d	.	16dd\	.	.
.	.	16ff#\	.	.
8F#\J 8A 8d	.	16aa\	.	.
.	.	16ff#\JJ	.	.
=61	=61	=61	=61	=61
8AA\L	.	(24ee\LL	.	.
.	.	24ff#\	.	.
.	.	24ee\JJ)	.	.
8A\ 8c# 8e	.	8cc#\L	.	.
8A\J 8c# 8e	.	16ee\L	.	.
.	.	16cc#\JJ	.	.
=62	=62	=62	=62	=62
8E\L	.	16dd\LL	.	.
.	.	16b\JJ	.	.
8E\ 8G# 8d	.	8dd\L	.	.
8E\J 8G# 8d	.	16dd\L	.	.
.	.	16b\JJ	.	.
=63||	=63||	=63||	=63||	=63||
8AA\L	.	4a/	.	.
8A\ 8c# 8e	.	.	.	.
.	.	(8qgg#/	.	.
8A\J 8c# 8e	.	8aa\)	.	.
=64	=64	=64	=64	=64
8EE\L 8E	.	16cc#\LL	.	.
.	.	16ee\JJ	.	.
8E\ 8G# 8d	.	8dd\L	.	.
8E\J 8G# 8d	.	16b\L	.	.
.	.	16g#\JJ	.	.
=65	=65	=65	=65	=65
8AA\L	.	8a\L	.	.
.	.	(8qgg#/	.	.
8A\ 8c# 8e	.	8aa\)	.	.
.	.	(8qgg#/	.	.
8A\J 8c# 8e	.	8aa\J)	.	.
=66	=66	=66	=66	=66
.	.	(8qgg#/	.	.
8A\L 8c# 8e	.	8aa\L)	.	.
(8qG#/	.	(8qgg#/	.	.
8A\)	.	8aa\)	.	.
(8qG#/	.	(8qgg#/	.	.
8A\J)	.	8aa\J)	.	.
!LO:LB:g=original	!	!LO:LB:g=original	!	!
=67||	=67||	=67||	=67||	=67||
!	!	!LO:TX:a:t=Coda.	!	!
8AA\L 8A	.	8a/L	.	f
8GG#\ 8G#	.	8d/ 8g# 8b	.	.
8GGn\J 8Gn	.	8e/J 8a 8cc#	.	.
=68	=68	=68	=68	=68
8FF#/L 8F#	.	8f#\L 8a 8dd	.	.
8EE/ 8E	.	8a\ 8cc# 8ee	.	.
8DD/J 8D	.	8a\J 8dd 8ff#	.	.
=69	=69	=69	=69	=69
8CC#/L 8C#	.	8a\L 8ee	.	.
8DD/ 8D	.	8a\ 8dd 8ff#	.	.
8BBB/J 8BB	.	8dd\J 8ee 8gg#	.	.
=70	=70	=70	=70	=70
8AAA/ 8AA	.	8cc#\ 8ee 8aa	.	.
8r	.	8r	.	.
8r	.	8r	.	.
=71	=71	=71	=71	=71
8E\ 8G# 8B 8d	.	8dd\ 8ee 8bb	.	.
8r	.	8r	.	.
8r	.	8r	.	.
=72	=72	=72	=72	=72
8C#\ 8E 8A	.	8cc#\ 8ee 8aa	.	.
8r	.	8r	.	.
8r	.	8r	.	.
=73	=73	=73	=73	=73
8qAA/ 8qA	.	8qa/ 8qcc# 8qee 8qaa	.	.
4.AA\ 4.A;	.	4.a\ 4.cc# 4.ee 4.aa;	.	.
==	==	==	==	==
*-	*-	*-	*-	*-
!!!system-decoration: [(s1,s2)]
!!!ENC: Solarz Mateusz
!!!END: 2022-08-01
!!!ENC: Julita Ruszuk
!!!END: 2022-09-02
